svgs/microsoft_teams.svg

<?xml version="1.0" encoding="UTF-8" standalone="no"?>
<svg
   viewBox="0 0 24 24"
   width="24"
   height="24"
   version="1.1"
   id="svg30"
   sodipodi:docname="microsoft_teams.svg"
   inkscape:version="1.1.1 (3bf5ae0d25, 2021-09-20)"
   xmlns:inkscape="http://www.inkscape.org/namespaces/inkscape"
   xmlns:sodipodi="http://sodipodi.sourceforge.net/DTD/sodipodi-0.dtd"
   xmlns="http://www.w3.org/2000/svg"
   xmlns:svg="http://www.w3.org/2000/svg">
  <defs
     id="defs34" />
  <sodipodi:namedview
     id="namedview32"
     pagecolor="#ffffff"
     bordercolor="#666666"
     borderopacity="1.0"
     inkscape:pageshadow="2"
     inkscape:pageopacity="0.0"
     inkscape:pagecheckerboard="0"
     showgrid="false"
     fit-margin-top="2"
     fit-margin-left="2"
     fit-margin-bottom="2"
     fit-margin-right="2"
     inkscape:snap-page="true"
     showguides="true"
     inkscape:guide-bbox="true"
     inkscape:zoom="22.627417"
     inkscape:cx="9.921592"
     inkscape:cy="18.539456"
     inkscape:window-width="1920"
     inkscape:window-height="1009"
     inkscape:window-x="-8"
     inkscape:window-y="-8"
     inkscape:window-maximized="1"
     inkscape:current-layer="path1103-3">
    <sodipodi:guide
       position="0.02593875,0.31244915"
       orientation="-1,0"
       id="guide867"
       inkscape:label=""
       inkscape:locked="false"
       inkscape:color="rgb(0,0,255)" />
    <sodipodi:guide
       position="0.1151032,0.28641172"
       orientation="0,1"
       id="guide869"
       inkscape:label=""
       inkscape:locked="false"
       inkscape:color="rgb(0,0,255)" />
    <sodipodi:guide
       position="0.28532625,-0.049633849"
       orientation="-1,0"
       id="guide871"
       inkscape:label=""
       inkscape:locked="false"
       inkscape:color="rgb(0,0,255)" />
    <sodipodi:guide
       position="0.21561586,0.026037429"
       orientation="0,1"
       id="guide873"
       inkscape:label=""
       inkscape:locked="false"
       inkscape:color="rgb(0,0,255)" />
  </sodipodi:namedview>
  <g
     id="g865"
     transform="matrix(46.55304,0,0,46.553085,7.9185636,1.8816286)">
    <path
       id="circle2"
       style="display:inline;fill:#000000;fill-opacity:1;stroke-width:0.624998"
       d="M 12.560547,2.8339844 C 10.975498,2.8694826 9.7090537,4.1645524 9.7089844,5.75 c 0.00561,0.074517 0.014078,0.1487901 0.025391,0.2226562 h 1.457031 c 1.001977,-0.00103 1.819395,0.8163918 1.81836,1.8183594 V 8.6210938 C 14.451257,8.428871 15.530951,7.2042173 15.541016,5.75 15.540542,4.1397241 14.235274,2.8344566 12.625,2.8339844 c -0.02148,-2.374e-4 -0.04297,-2.374e-4 -0.06445,0 z M 19.140625,4.5 C 17.950847,4.5254998 16.999727,5.4974478 17,6.6875 c 0,1.2081238 0.979377,2.1875014 2.1875,2.1875 1.208123,1.4e-6 2.1875,-0.9793762 2.1875,-2.1875 0,-1.2081238 -0.979377,-2.1875014 -2.1875,-2.1875 -0.01562,-1.674e-4 -0.03125,-1.674e-4 -0.04687,0 z M 10.75,7.9726562 c 0.08319,0.065877 0.169902,0.1271664 0.259766,0.1835938 V 7.9726562 Z M 13.009766,9.5 v 6.65625 c 10e-4,1.001962 -0.816428,1.819394 -1.81836,1.818359 H 7.8964844 c 0.028045,0.09263 0.058655,0.184461 0.091797,0.275391 0.087747,0.216146 0.1922311,0.425114 0.3125,0.625 2.1892586,3.775367 7.8266296,3.126948 9.1015626,-1.046875 0.259312,0.143882 0.537363,0.251026 0.826172,0.318359 C 20.172092,18.554454 21.999065,17.071872 22,15.085938 V 10.4375 C 22,9.9197326 21.580267,9.4999994 21.0625,9.5 h -4.375 z"
       transform="matrix(0.02148087,0,0,0.02148085,-0.17009767,-0.04041899)"
       sodipodi:nodetypes="scccccccssscsscsscccccccccccccsccc" />
    <g
       id="path1103-3"
       inkscape:label="square"
       style="display:inline">
      <path
         style="color:#000000;display:inline;fill:#000000;fill-opacity:0;stroke-width:0.0429617;stroke-miterlimit:0;-inkscape-stroke:none;paint-order:fill markers stroke"
         d="m -0.10997638,0.10994695 c -0.009602,3.9561e-4 -0.0171776,0.008304 -0.0171595,0.0179147 v 0.17897912 c -1.022e-5,0.009898 0.008016,0.0179249 0.0179147,0.0179147 h 0.17897929 c 0.0098982,1.022e-5 0.01792492,-0.008016 0.0179147,-0.0179147 V 0.12786164 c 1.022e-5,-0.009898 -0.0080165,-0.0179249 -0.0179147,-0.0179147 h -0.17897929 c -2.5171e-4,-5.31e-6 -5.0349e-4,-5.31e-6 -7.552e-4,10e-9 z"
         id="path11016" />
    </g>
    <path
       id="path1103"
       style="display:inline;stroke-width:2;stroke-miterlimit:0;stroke-dasharray:none;paint-order:fill markers stroke"
       inkscape:label="square"
       d="M 2.7988281,7 A 0.83312444,0.83312519 0 0 0 2,7.8339844 V 16.166016 A 0.83312444,0.83312519 0 0 0 2.8339844,17 H 11.166016 A 0.83312444,0.83312519 0 0 0 12,16.166016 V 7.8339844 A 0.83312444,0.83312519 0 0 0 11.166016,7 H 2.8339844 A 0.83312444,0.83312519 0 0 0 2.7988281,7 Z M 4.5117188,8.8789062 H 9.4882812 V 10.109375 H 7.6191406 v 5.011719 H 6.3925781 V 10.109375 H 4.5117188 Z"
       transform="matrix(0.02148087,0,0,0.02148085,-0.17009763,-0.040419)" />
    <path
       d="M -0.12713589,0.00254272 H 0.30248118 V 0.43215979 H -0.12713589 Z"
       fill="none"
       id="path28"
       style="display:inline;stroke-width:0.0134255" />
  </g>
</svg>

<svg xmlns="http://www.w3.org/2000/svg" width="24" height="24" viewBox="0 0 24 24"><path d="M12.56 2.834A2.917 2.917 0 0 0 9.71 5.75c.006.075.014.149.025.223h1.457A1.82 1.82 0 0 1 13.01 7.79v.83a2.917 2.917 0 0 0 2.53-2.87 2.917 2.917 0 0 0-2.98-2.916zM19.14 4.5a2.187 2.187 0 1 0 .094 4.374 2.187 2.187 0 0 0-.093-4.374zm-8.39 3.473c.083.066.17.127.26.183v-.183ZM13.01 9.5v6.656a1.82 1.82 0 0 1-1.819 1.819H7.896c.029.092.06.184.092.275.088.216.193.425.313.625 2.189 3.775 7.826 3.127 9.101-1.047a3.2 3.2 0 0 0 .827.318A3.129 3.129 0 0 0 22 15.086v-4.648a.937.937 0 0 0-.937-.938h-4.375z" style="display:inline;fill:#000;fill-opacity:1;stroke-width:.624998"/><g style="display:inline"><path fill="none" d="M-.11.11a.018.018 0 0 0-.017.018v.179c0 .01.008.018.018.018H.07C.08.325.088.317.088.307v-.18A.018.018 0 0 0 .07.11h-.18z" style="color:#000;display:inline;fill:#000;fill-opacity:0;stroke-width:.0429617;stroke-miterlimit:0;-inkscape-stroke:none;paint-order:fill markers stroke" transform="matrix(46.55304 0 0 46.55309 7.919 1.882)"/></g><path d="M2.799 7A.833.833 0 0 0 2 7.834v8.332a.833.833 0 0 0 .834.834h8.332a.833.833 0 0 0 .834-.834V7.834A.833.833 0 0 0 11.166 7H2.834a.833.833 0 0 0-.035 0m1.713 1.879h4.976v1.23H7.62v5.012H6.393V10.11H4.512Z" style="display:inline;stroke-width:2;stroke-miterlimit:0;stroke-dasharray:none;paint-order:fill markers stroke"/><path fill="none" d="M-.127.003h.43v.43h-.43Z" style="display:inline;stroke-width:.0134255" transform="matrix(46.55304 0 0 46.55309 7.919 1.882)"/></svg>
